Costumes/Z-story-3.svg

<?xml version="1.0" encoding="utf-8"?>
<!-- Generator: Adobe Illustrator 18.0.0, SVG Export Plug-In . SVG Version: 6.00 Build 0)  -->
<!DOCTYPE svg PUBLIC "-//W3C//DTD SVG 1.1//EN" "http://www.w3.org/Graphics/SVG/1.1/DTD/svg11.dtd">
<svg version="1.1" id="Layer_2" xmlns="http://www.w3.org/2000/svg" xmlns:xlink="http://www.w3.org/1999/xlink" x="0px" y="0px"
	 viewBox="0 0 34.7 47.8" enable-background="new 0 0 34.7 47.8" xml:space="preserve">
<g>
	<path fill="#41A2F2" d="M34.5,38.1C33.9,41,33.7,44,34.1,47c0,0.1,0,0.2-0.1,0.3C22.7,47.8,11.3,48,0.1,47.5
		c-0.5-2,0.6-3.5,1.5-4.9c1.5-2.5,3.1-4.9,4.7-7.3c1.9-2.9,3.7-5.9,5.6-8.8c2.4-3.8,4.9-7.6,7.4-11.4c1.9-2.9,3.8-5.9,5.7-8.8
		c0.6-0.9,1.2-1.8,1.8-2.9c-1.3-0.1-2.5-0.2-3.7-0.2c-4.2,0-8.5-0.1-12.7,0.1C8.6,3.4,6.7,3.6,5.4,5.2c-1.2,1.5-2.1,3.2-2.7,5.1
		c-0.2,0.8-0.4,1.3-1.4,1.1C1,11.3,0.6,11.5,0,11.5c0-1.6,0-3,0-4.4C0.1,5.1,0.3,3,0.4,1c0-0.7,0.3-0.8,0.9-0.8c1.5,0,3,0,4.5,0
		c3,0,6,0,9,0c3.8,0,7.5,0,11.3,0c2.2,0,4.4-0.1,6.6-0.1c1.8,0,2,0,1.7,1.8c-0.3,1.3-1,2.6-1.8,3.7c-1.9,2.6-3.4,5.4-4.9,8.3
		c-1,2-2.3,3.8-3.5,5.7c-1.7,2.7-3.4,5.5-5.2,8.2c-2.7,4.3-5.5,8.5-8.2,12.8c-0.8,1.3-1.4,2.7-2.2,4.3c0.7-0.1,1.2-0.2,1.7-0.2
		c2.8-0.1,5.5-0.2,8.3-0.2c2.8,0,5.6,0.3,8.3-0.3c1.4-0.3,2.5-1.1,3.1-2.4c0.7-1.5,1.3-3.1,1.9-4.7c0.2-0.5,0.4-0.6,0.9-0.6
		C34.4,36.2,35,35.8,34.5,38.1z"/>
</g>
</svg>

<?xml version="1.0" encoding="UTF-8" standalone="no"?>
<!-- Generator: Adobe Illustrator 18.0.0, SVG Export Plug-In . SVG Version: 6.00 Build 0)  -->

<svg
   version="1.1"
   id="Layer_2"
   x="0px"
   y="0px"
   viewBox="0 0 34.696807 47.689622"
   enable-background="new 0 0 34.7 47.8"
   xml:space="preserve"
   sodipodi:docname="Z-story-3.svg"
   width="34.696808"
   height="47.689621"
   xmlns:inkscape="http://www.inkscape.org/namespaces/inkscape"
   xmlns:sodipodi="http://sodipodi.sourceforge.net/DTD/sodipodi-0.dtd"
   xmlns="http://www.w3.org/2000/svg"
   xmlns:svg="http://www.w3.org/2000/svg"><defs
   id="defs9" /><sodipodi:namedview
   id="namedview7"
   pagecolor="#ffffff"
   bordercolor="#000000"
   borderopacity="0.25"
   inkscape:showpageshadow="2"
   inkscape:pageopacity="0.0"
   inkscape:pagecheckerboard="0"
   inkscape:deskcolor="#d1d1d1" />
<g
   id="g4"
   transform="translate(0.02516073,-0.1)">
	<path
   fill="#41a2f2"
   d="M 34.5,38.1 C 33.9,41 33.7,44 34.1,47 c 0,0.1 0,0.2 -0.1,0.3 C 22.7,47.8 11.3,48 0.1,47.5 -0.4,45.5 0.7,44 1.6,42.6 3.1,40.1 4.7,37.7 6.3,35.3 8.2,32.4 10,29.4 11.9,26.5 14.3,22.7 16.8,18.9 19.3,15.1 21.2,12.2 23.1,9.2 25,6.3 25.6,5.4 26.2,4.5 26.8,3.4 25.5,3.3 24.3,3.2 23.1,3.2 18.9,3.2 14.6,3.1 10.4,3.3 8.6,3.4 6.7,3.6 5.4,5.2 4.2,6.7 3.3,8.4 2.7,10.3 2.5,11.1 2.3,11.6 1.3,11.4 1,11.3 0.6,11.5 0,11.5 0,9.9 0,8.5 0,7.1 0.1,5.1 0.3,3 0.4,1 0.4,0.3 0.7,0.2 1.3,0.2 c 1.5,0 3,0 4.5,0 3,0 6,0 9,0 3.8,0 7.5,0 11.3,0 2.2,0 4.4,-0.1 6.6,-0.1 1.8,0 2,0 1.7,1.8 -0.3,1.3 -1,2.6 -1.8,3.7 -1.9,2.6 -3.4,5.4 -4.9,8.3 -1,2 -2.3,3.8 -3.5,5.7 -1.7,2.7 -3.4,5.5 -5.2,8.2 -2.7,4.3 -5.5,8.5 -8.2,12.8 -0.8,1.3 -1.4,2.7 -2.2,4.3 0.7,-0.1 1.2,-0.2 1.7,-0.2 2.8,-0.1 5.5,-0.2 8.3,-0.2 2.8,0 5.6,0.3 8.3,-0.3 1.4,-0.3 2.5,-1.1 3.1,-2.4 0.7,-1.5 1.3,-3.1 1.9,-4.7 0.2,-0.5 0.4,-0.6 0.9,-0.6 1.6,-0.3 2.2,-0.7 1.7,1.6 z"
   id="path2" />
</g>
</svg>
